**kern	**kern	**dynam
*part1	*part1	*part1
*staff2	*staff1	*
*I"Piano	*	*
*clefF4	*clefG2	*
*k[]	*k[]	*
=1	=1	=1
4.EE 4.E	(16aLL] 16cc	.
.	16e	.
.	16a	.
.	16cc	[
.	16b	.
.	16aJJ)	.
=	=	=
*	*^	*
4EEE) 4EE	(16g#XLL	4.g#	>
.	16ff	.	.
.	16ee	.	]
.	16dd	.	.
8r	16cc	.	.
.	16bJJ)	.	.
=	=	=	=
(8AAL 8A	(8ccL	16ccLL	<
.	.	16a	.
8FF 8F	8dd	16dd	.
.	.	16a	.
8CC#XJ 8C#X	8eeJ	16ee	.
.	.	16gnJJ 16a	.
=	=	=	=
4DD 4D	8ffL	16ffLL	[ >
.	.	16f 16a	.
.	8ee	16ee	.
.	.	16f 16a	.
8AA-X) 8A-X	8ddJ)	16dd	.
.	.	16cnJJ 16f	]
=	=	=	=
*^	*	*	*
!	!	!	!	!LO:DY:a
(4E	(4.GG	(4cc	16ccLL	<
.	.	.	16c 16e	.
.	.	.	16g	.
.	.	.	[16cc	.
8F	.	8dd	16cc]	.
.	.	.	[16bJJ	[
=	=	=	=	=
4G:)	4CC)	4ee^)	16bLL]	.
!	!	!LO:TX:b:i:t=cresc.	!	!
.	.	.	(16cc	.
.	.	.	16g	.
.	.	.	16e	.
8r	8ryy	8r	16g	.
.	.	.	16ccJJ)	.
*v	*v	*	*	*
=	=	=	=
(4.GGG 4.GG	8bL	16bLL	mf
.	.	16B 16e	<
.	8ee	16ee	.
.	.	16e 16b	.
.	8ggJ	16gg	.
.	.	16bJJ 16ee	.
*	*v	*v	*
=	=	=
*-	*-	*-
!!!system-decoration: {(s1,s2)}
